icons/PyCharm-Dark.svg

<svg width="256" height="256" viewBox="0 0 256 256" fill="none" xmlns="http://www.w3.org/2000/svg">
<g clip-path="url(#clip0_36_1186)">
<path d="M196 0H60C26.8629 0 0 26.8629 0 60V196C0 229.137 26.8629 256 60 256H196C229.137 256 256 229.137 256 196V60C256 26.8629 229.137 0 196 0Z" fill="#242938"/>
<g clip-path="url(#clip1_36_1186)">
<path d="M50.4451 66.8836L40.1711 180.411L99.7602 214.829L112.26 200.445L199.589 138.459L213.459 110.205L180.068 82.2945L114.144 40L50.4451 66.8836Z" fill="url(#paint0_linear_36_1186)"/>
<path d="M73.048 130.068L47.363 168.082L111.575 200.616L174.418 73.904L170.137 40.1711L131.781 73.904L73.048 130.068Z" fill="url(#paint1_linear_36_1186)"/>
<path d="M213.459 110.377L180.068 82.8081V142.055L199.76 138.459L213.459 110.377Z" fill="#09C4EF"/>
<path d="M160.205 214.829L90.5137 194.623L93.0822 181.438L181.952 118.767L193.253 114.486L214.829 197.021L160.205 214.829Z" fill="url(#paint2_linear_36_1186)"/>
<path d="M181.438 73.5615H73.2192V181.781H181.438V73.5615Z" fill="black"/>
<path d="M103.528 87.9453H83.322V132.637H92.9111V119.281H103.185L105.411 118.938L107.98 118.254L110.548 117.226L112.26 116.199L113.973 114.829L115.685 112.945L117.397 110.206L118.254 107.637L118.596 104.384L118.425 101.13L117.74 98.2193L116.712 95.6508L115.514 93.7672L113.973 92.2261L112.432 91.0275L110.891 90.0001L109.349 89.3152L108.151 88.8015L106.61 88.459L104.897 88.1165L103.528 87.9453Z" fill="white" stroke="black"/>
<path d="M101.815 96.678H93.0823V110.377H102.158L103.87 109.863L105.582 109.178L106.952 107.979L107.98 106.267L108.493 104.555V102.329L108.151 101.13L107.466 99.7602L106.438 98.5615L105.24 97.7054L103.699 97.0204L101.815 96.678Z" fill="black" stroke="black"/>
<path d="M123.904 161.575H83.4932V168.082H123.904V161.575Z" fill="white"/>
<path d="M169.795 110.365L169.795 110.371V110.377C169.795 115.414 167.585 120.727 163.845 124.938C159.652 129.658 153.549 132.979 146.507 132.979C133.163 132.979 122.877 123.4 122.877 110.548C122.877 104.107 124.962 98.2442 128.997 93.9939C133.03 89.7449 139.025 87.0918 146.874 87.0918C153.549 87.0918 159.501 89.9045 163.673 94.2284C167.832 98.5397 170.218 104.349 169.795 110.365Z" fill="white" stroke="black"/>
<path d="M160.377 109.863C160.209 117.567 155.411 124.075 145.479 124.075C137.346 124.075 132.808 117.145 132.808 109.863C132.808 102.581 137.86 96.3357 145.993 96.3357C154.126 96.3357 160.548 101.986 160.377 109.863Z" fill="black"/>
<path d="M157.294 101.473L163.801 94.1096L171.678 102.842V116.199L163.801 124.932L157.466 118.767L157.294 101.473Z" fill="black" stroke="black"/>
</g>
</g>
<defs>
<linearGradient id="paint0_linear_36_1186" x1="113.801" y1="40" x2="97.5342" y2="215" gradientUnits="userSpaceOnUse">
<stop stop-color="#2CD788"/>
<stop offset="0.37966" stop-color="#24D68E"/>
<stop offset="1" stop-color="#1ED593"/>
</linearGradient>
<linearGradient id="paint1_linear_36_1186" x1="169.623" y1="40.3424" x2="64.3151" y2="174.76" gradientUnits="userSpaceOnUse">
<stop stop-color="#ADE46C"/>
<stop offset="0.886667" stop-color="#59DC7E"/>
<stop offset="1" stop-color="#1FD593"/>
</linearGradient>
<linearGradient id="paint2_linear_36_1186" x1="99.2465" y1="215" x2="215" y2="197.021" gradientUnits="userSpaceOnUse">
<stop stop-color="#BAE768"/>
<stop offset="0.993345" stop-color="#FBF849"/>
<stop offset="1" stop-color="#FAF748"/>
</linearGradient>
<clipPath id="clip0_36_1186">
<rect width="256" height="256" fill="white"/>
</clipPath>
<clipPath id="clip1_36_1186">
<rect width="175" height="175" fill="white" transform="translate(40 40)"/>
</clipPath>
</defs>
</svg>

<svg xmlns="http://www.w3.org/2000/svg" width="256" height="256" fill="none" viewBox="0 0 256 256"><g clip-path="url(#a)"><path fill="#242938" d="M196 0H60A60 60 0 0 0 0 60v136a60 60 0 0 0 60 60h136a60 60 0 0 0 60-60V60a60 60 0 0 0-60-60"/><g clip-path="url(#b)"><path fill="url(#c)" d="M50.45 66.88 40.17 180.41l59.59 34.42 12.5-14.39 87.33-61.98 13.87-28.26-33.4-27.9L114.15 40z"/><path fill="url(#d)" d="m73.05 130.07-25.69 38.01 64.22 32.54L174.42 73.9l-4.28-33.73-38.36 33.73z"/><path fill="#09C4EF" d="m213.46 110.38-33.4-27.57v59.25l19.7-3.6z"/><path fill="url(#e)" d="m160.2 214.83-69.69-20.2 2.57-13.2 88.87-62.66 11.3-4.28 21.58 82.53z"/><path fill="#000" d="M181.44 73.56H73.22v108.22h108.22z"/><path fill="#fff" stroke="#000" d="M103.53 87.95h-20.2v44.69h9.58v-13.36h10.28l2.22-.34 2.57-.69 2.57-1.02 1.71-1.03 1.71-1.37 1.72-1.89 1.7-2.73.86-2.57.35-3.26-.17-3.25-.69-2.91-1.03-2.57-1.2-1.88-1.54-1.54-1.54-1.2L110.9 90l-1.54-.68-1.2-.52-1.54-.34-1.71-.34z"/><path fill="#000" stroke="#000" d="M101.82 96.68h-8.74v13.7h9.08l1.71-.52 1.71-.68 1.37-1.2 1.03-1.71.51-1.71v-2.23l-.34-1.2-.68-1.37-1.03-1.2-1.2-.85-1.54-.69z"/><path fill="#fff" d="M123.9 161.57H83.5v6.51h40.4z"/><path fill="#fff" stroke="#000" d="M169.8 110.37c0 5.04-2.22 10.36-5.96 14.57-4.19 4.72-10.3 8.04-17.33 8.04-13.35 0-23.63-9.58-23.63-22.43 0-6.44 2.08-12.3 6.12-16.56s10.03-6.9 17.87-6.9c6.68 0 12.63 2.81 16.8 7.14 4.16 4.31 6.55 10.12 6.13 16.13Z"/><path fill="#000" d="M160.38 109.86c-.17 7.7-4.97 14.22-14.9 14.22-8.13 0-12.67-6.94-12.67-14.22s5.05-13.52 13.18-13.52c8.14 0 14.56 5.65 14.39 13.52"/><path fill="#000" stroke="#000" d="m157.3 101.47 6.5-7.36 7.88 8.73v13.36l-7.88 8.73-6.33-6.16z"/></g></g><defs><linearGradient id="c" x1="113.8" x2="97.53" y1="40" y2="215" gradientUnits="userSpaceOnUse"><stop stop-color="#2CD788"/><stop offset=".38" stop-color="#24D68E"/><stop offset="1" stop-color="#1ED593"/></linearGradient><linearGradient id="d" x1="169.62" x2="64.32" y1="40.34" y2="174.76" gradientUnits="userSpaceOnUse"><stop stop-color="#ADE46C"/><stop offset=".89" stop-color="#59DC7E"/><stop offset="1" stop-color="#1FD593"/></linearGradient><linearGradient id="e" x1="99.25" x2="215" y1="215" y2="197.02" gradientUnits="userSpaceOnUse"><stop stop-color="#BAE768"/><stop offset=".99" stop-color="#FBF849"/><stop offset="1" stop-color="#FAF748"/></linearGradient><clipPath id="a"><path fill="#fff" d="M0 0h256v256H0z"/></clipPath><clipPath id="b"><path fill="#fff" d="M40 40h175v175H40z"/></clipPath></defs></svg>
